!!!OTL: Krambambuli (3-47), S. 124f
!!!id: K1180
**kern
*clefG2
*k[]
*C:
{4g
=1
4cc
8b
8a
4.g
8g
=2
4a
4b
8cc
8g
8g}
=3
{8g
=4
8a
8g
8e
8c
4g
4g
=5
2e}
4r
=6
{4g
=7
4cc
8b
8a
4.g
8g
=8
4a
4b
8cc
8g
8g}
=9
{8g
=10
8a
8g
8e
8c
4g
4g
=11
2e}
4r
=12
{4g
=13
8.e
16g
8g
8g
8.a
16g
8g
8g
=14
8.e
16g
8g
8g
8.a
16g
8g}
=15
{8g
=16
4cc
4dd
8.ee
16cc
8cc
8cc
=17
4dd
4b
4cc}
=18
{4g
=19
8.e
16g
8g
8g
8.a
16g
8g
8g
=20
8.e
16g
8g
8g
8.a
16g
8g}
=21
{8g
=22
4cc
4dd
8.ee
16cc
8cc
8cc
=23
4dd
4b
4cc}
==
*-
!!!minrhy: 16
!!!meters: 4/4 ]  ZZ[8
!!!cut: Krambambuli (3-47), S. 124f
!!!reg: Luxemburg
!!!trd: KINTZELE, Guillaume: An der Ucht, Bd. 3 Luxemburg 1928
!!!rhy1: X__  X__X_X_X__.X_  X__X__X_X_X_   (x2)
!!!rhy2: X_  X_X_X_X_X__X__  X___0_
!!!key: K1180  16  C 4/4 ]  ZZ[8
!!!mod: SECHSTONSKALA DUR ?]  AMBITUS[10
!!!kad: 53535+15+1
!!!akz: +156+1_653_+156+1_653_3636_+1+3+2+1_3636_+1+3+2+1_
!!!fot: 'a__b__a__b__c__d__c__d__
!!!for: 'a__b__a__b__c__d__c__d__
!!!fok: 'M__\__M__\__W__^a_W__^a_
!! PHRAS[AUFTAKTIG]
!!!fkt: Scherz-, Trinklied
!!!bem: in der Quelle mit einer 2. Stimme versehen
!! KINTZELE
!! PR[19] 2K[12] 2G[14] 3K[5] 3G[5] 4A[0] 4Ü[0] 5A[0] 6K[3] 6G[0]
!! 7K[0] 7G[0] 8A[0] MEHR[0] SI[39] ABS[59] SR[25] SP[14]
!! ST[14] 2k[12] 2g[19] 3k[8] 3g[3] 4d[0] 4ü[0] 5d[0] 6k[0] 6g[0]
!! 7k[0] 7g[0] 8d[0] mehr[0] si[42] dm[-3] sr[31] sp[12]
!! 1F[13] 2F[35] 3F[8] 4F[7] LF[0] 2P[13] 3P[8] 4P[0] TRI[0] DF[7] AB[60]
!! TF[0] U3K[0] U3[0] U4[0] U4Ü[0] U5[0] U6K[0] U6[0] U7K[0] U7[0]
!! N1[0] N2K[0] N2[0] N3K[0] N3[10] N4[10] N4Ü[2] N5[22] N6K[0] N6[23]
!!!n7k: 0] N7[15] O1[13] O2K[0] O2[3] O3K[0] O3[2] HÖ[0
